!!!COM: Palestrina, Giovanni Perluigi da
!!!OPR: Missa Gabriel Archangelus
!!!OTL: Credo
**kern	**kern	**kern	**kern
*Ibass	*Itenor	*Icalto	*Icant
!Bassus	!Tenor	!Altus	!Cantus
*clefF4	*clefGv2	*clefG2	*clefG2
*k[b-]	*k[b-]	*k[b-]	*k[b-]
*D:aeo	*D:aeo	*D:aeo	*D:aeo
*M4/2	*M4/2	*M4/2	*M4/2
=1	=1	=1	=1
1r	0d	0r	0r
[1d	.	.	.
=2	=2	=2	=2
1d]	1G	0r	1r
1G	1g	.	[1dd
=3	=3	=3	=3
1d	2f	0r	1dd]
.	2f	.	.
2c	1e-	.	1g
2c	.	.	.
=4	=4	=4	=4
1B-	2d	1r	1dd
.	2d	.	.
1A	2f	[1a	2dd
.	2e	.	2cc#
=5	=5	=5	=5
1D	1f	1a]	2.dd
.	.	.	4cc
2G	2.g	1d	[1b-
2G	.	.	.
.	8f	.	.
.	8e-	.	.
=6	=6	=6	=6
1G	0d	1g	1b-]
1D	.	2g	2a
.	.	2f#	2dd
=7	=7	=7	=7
0r	1G	1g	2dd
.	.	.	2ee
.	2r	1d	2.ff
.	2d	.	.
.	.	.	4ee
=8	=8	=8	=8
0r	2d	2r	2dd
.	2e	2g	2.cc
.	2.f	1a	.
.	.	.	4b-
.	.	.	4a
.	4e	.	4g
=9	=9	=9	=9
0r	4d	2a	2f
.	4c	.	.
.	4B-	2.b-	2ff
.	4A	.	.
.	2B-	.	2dd
.	.	4a	.
.	2c	2g	[2ee
=10	=10	=10	=10
0r	2d	2f	4ee]
.	.	.	4dd
.	2G	2g	1dd
.	1A	1e	.
.	.	.	2cc#
=11	=11	=11	=11
2r	1d	2f	0dd
1G	.	2.g	.
.	2r	.	.
.	.	4f	.
2F	[2d	2d	.
=12	=12	=12	=12
2G	2d]	1e	0r
2A	2c	.	.
2B-	2d	1r	.
4A	2e	.	.
4G	.	.	.
=13	=13	=13	=13
2A	2f	2r	0r
2.G	2.e	1g	.
4F	4d	.	.
2D	[2d	2f	.
=14	=14	=14	=14
2E	2d]	2.g	2r
2E	2c#	.	1g
.	.	4a	.
1D	2.d	2b-	.
.	.	2a	2f
.	4c	.	.
=15	=15	=15	=15
1r	2B-	2g	2g
.	2A	2f	2a
2r	1G	2.g	2.b-
[2G	.	.	.
.	.	4f	4a
=16	=16	=16	=16
2G]	0r	4d	4b-
.	.	4e	4cc
2F	.	2f	1dd
2G	.	1e	.
2A	.	.	2cc#
=17	=17	=17	=17
2.B-	2r	1d	1dd
.	2d	.	.
4B-	.	.	.
2A	2c	1r	1r
[2G	2d	.	.
=18	=18	=18	=18
2G]	2e	1r	0r
2F	1d	.	.
1E	.	2r	.
.	2c#	[2g	.
=19	=19	=19	=19
1D	1d	2g]	2r
.	.	2f	1dd
1r	2B-	2g	.
.	2A	2a	2cc
=20	=20	=20	=20
0r	1G	2.b-	2dd
.	.	.	2ee
.	.	4b-	.
.	1d	2a	2.ff
.	.	2f	.
.	.	.	4ff
=21	=21	=21	=21
0r	1r	2.g	2ee
.	.	.	1dd
.	.	4a	.
.	2r	2b-	.
.	2c	[2a	2cc
=22	=22	=22	=22
1r	2d	2a]	1b-
.	2e	2g	.
2r	2.f	1a	1a
2D	.	.	.
.	4f	.	.
=23	=23	=23	=23
2G	2e	0r	2r
2A	2c	.	2a
2.B-	2d	.	2f
.	2d	.	2g
4B-	.	.	.
=24	=24	=24	=24
2A	0c	1r	2.a
2F	.	.	.
.	.	.	4b-
2A	.	2r	2cc
2A	.	2c	2a
=25	=25	=25	=25
1G	0r	2d	2b-
.	.	2e	2b-
2.F	.	2.f	2a
.	.	.	[2dd
4G	.	4f	.
=26	=26	=26	=26
1A	2r	2e	4dd]
.	.	.	4cc
.	2A	2c	1cc
1r	2F	2d	.
.	2G	2d	2b
=27	=27	=27	=27
0r	2.A	2.c	2.cc
.	4B-	4d	8b
.	.	.	8a
.	2c	2e	2g
.	2A	2f	[2a
=28	=28	=28	=28
2r	2B-	1d	2a]
1d	2B-	.	2g
.	2A	1e	1a
2c	[2a	.	.
=29	=29	=29	=29
2A	2a]	2r	1r
2B-	2g	1g	.
2c	2e	.	2r
2d	2f	2f	[2dd
=30	=30	=30	=30
2B-	2g	2d	2dd]
2c	2.a	2e	2cc
1d	.	1f	2a
.	4g	.	.
.	[2f	.	2b-
=31	=31	=31	=31
1c	4f]	1g	1cc
.	8e	.	.
.	8d	.	.
.	2e	.	.
2r	2f	1f	[1a
[2d	2d	.	.
=32	=32	=32	=32
2d]	1A	2r	1a]
2c	.	1a	.
2A	1r	.	2r
2B-	.	2g	2dd
=33	=33	=33	=33
2c	0r	2e	2cc
1d	.	2f	2a
.	.	2g	2b-
2c	.	[2a	2cc
=34	=34	=34	=34
2B-	2r	2a]	2.dd
2B-	1d	2g	.
.	.	.	4ee
1A	.	[1a	2ff
.	2c	.	4ee
.	.	.	4dd
=35	=35	=35	=35
0r	2A	2a]	2cc
.	2B-	4g	2dd
.	.	4f	.
.	2c	2e	2ee
.	[2d	2d	[2ff
=36	=36	=36	=36
0r	2d]	2f	4ff]
.	.	.	4ee
.	2G	2g	1dd
.	1A	1e	.
.	.	.	2cc#
=37	=37	=37	=37
1G	2r	[0d	1dd
.	2B-	.	.
2G	2B-	.	1r
2F	2A	.	.
=38	=38	=38	=38
2.B-	4G	0d]	2r
.	4A	.	.
.	4B-	.	2b-
4A	4c	.	.
2G	4d	.	2b-
.	4e	.	.
2F	4f	.	2a
.	4d	.	.
=39	=39	=39	=39
2.G	2e	1r	1g
.	1d	.	.
4F	.	.	.
1E	.	2r	2g
.	2c#	2g	2g
=40	=40	=40	=40
1D	1d	2g	2b-
.	.	2f	2a
2r	1r	[1b-	4g
.	.	.	4a
2G	.	.	4b-
.	.	.	4cc
=41	=41	=41	=41
2G	0r	2b-]	4dd
.	.	.	4ee
2F	.	2a	4ff
.	.	.	4dd
2c	.	2g	2ee
2d	.	2f	[2dd
=42	=42	=42	=42
1A	2r	1e	2dd]
.	2e	.	2cc#
1r	2f	4d	1dd
.	.	4e	.
.	[2d	4f	.
.	.	4d	.
=43	=43	=43	=43
1A	2d]	2e	0r
.	2c#	2e	.
2B-	2d	[1d	.
[2G	[2B-	.	.
=44	=44	=44	=44
2G]	2B-]	0d]	2r
2F	2A	.	2a
2G	2.G	.	2b-
[2B-	.	.	[2g
.	4A	.	.
=45	=45	=45	=45
2B-]	2B-	2r	2g]
2A	2c	2a	2f#
1G	[1d	2b-	2g
.	.	[2g	[2b-
=46	=46	=46	=46
1D	1d]	2g]	2b-]
.	.	2f#	2a
2r	1G	1g	4g
.	.	.	4a
2G	.	.	4b-
.	.	.	4cc
=47	=47	=47	=47
2B-	0r	1.f	4dd
.	.	.	4ee-
2B-	.	.	2.dd
1c	.	.	.
.	.	.	4cc
.	.	2e	[2cc
=48	=48	=48	=48
1G	2r	1d	2cc]
.	1g	.	2b
2r	.	1c	[1cc
[2c	2g	.	.
=49	=49	=49	=49
2c]	1e	0r	1cc]
2c	.	.	.
2A	2f	.	1r
2B-	[2g	.	.
=50	=50	=50	=50
2.c	4g]	1r	0r
.	4f	.	.
.	4e	.	.
4B-	4d	.	.
4A	4c	2r	.
4G	4B-	.	.
4F	4A	[2f	.
4E	4G	.	.
=51	=51	=51	=51
2D	2F	2f]	0r
1F	2.A	2f	.
.	.	2d	.
.	4B-	.	.
2E	[2c	2e	.
=52	=52	=52	=52
1D	2c]	1f	1r
.	2B	.	.
1A	[1c	2.e	2r
.	.	.	[2cc
.	.	4f	.
=53	=53	=53	=53
2r	1c]	2g	2cc]
1F	.	1a	2cc
.	1r	.	2a
2G	.	2g	2b-
=54	=54	=54	=54
2A	0r	2e	1cc
2A	.	2f	.
1B-	.	2d	2f
.	.	2d	[2ff
=55	=55	=55	=55
2A	2r	2.f	4ff]
.	.	.	4ee
2.B-	1f	.	2.dd
.	.	4e	.
.	.	2d	.
4A	.	.	4cc
2F	2f	2c	2a
=56	=56	=56	=56
1G	2d	1B-	1b-
.	2e	.	.
2.F	1f	1c	2.a
4G	.	.	4b-
=57	=57	=57	=57
1A	2e	2r	0cc
.	2.f	1a	.
1r	.	.	.
.	4e	.	.
.	2c	2g	.
=58	=58	=58	=58
2r	1d	2f	0a
1d	.	2f	.
.	1A	2.e	.
2c	.	.	.
.	.	4f	.
=59	=59	=59	=59
2B-	2r	2g	1r
2B-	2d	2.f	.
2A	2c	.	2r
.	.	4e	.
[2B-	[2f	4d	[2dd
.	.	4c	.
=60	=60	=60	=60
2B-]	4f]	2B-	2dd]
.	4f	.	.
2A	2f	2c	2cc
2G	1B-	2d	2b-
2G	.	2e	2b-
=61	=61	=61	=61
1F	2c	2.f	2a
.	2.d	.	1ff
.	.	4e	.
1r	.	4f	.
.	4c	4g	.
.	2A	[2a	2ee
=62	=62	=62	=62
0r	1B-	2a]	2dd
.	.	2g	2dd
.	1A	2.a	2.cc
.	.	4g	4b-
=63	=63	=63	=63
1A	2r	2f	0a
.	2c	2e	.
2F	2d	1f	.
2D	2d	.	.
=64	=64	=64	=64
0A	2.c	1e	1r
.	4d	.	.
.	2e	2r	1cc
.	2f	2a	.
=65	=65	=65	=65
2B-	2d	2f	2dd
2B-	2d	2d	2dd
1A	1e	[1a	2.cc
.	.	.	4dd
=66	=66	=66	=66
0r	2r	1a]	2ee
.	2d	.	2ff
.	2B-	2b-	2.dd
.	2G	2b-	.
.	.	.	4ee
=67	=67	=67	=67
1r	1d	[0a	2ff
.	.	.	2ff
1A	2c	.	1ee
.	2c	.	.
=68	=68	=68	=68
2F	1f	1a]	2r
2D	.	.	1dd
1A	[1e	1r	.
.	.	.	[2cc
=69	=69	=69	=69
2A	1e]	1a	2cc]
2A	.	.	2a
1B-	2r	2f	1dd
.	2d	2d	.
=70	=70	=70	=70
1A	2f	1a	2cc
.	2e	.	2cc
1D	1d	2a	1ff
.	.	2a	.
=71	=71	=71	=71
1r	2B-	2.b-	[0dd
.	2G	.	.
.	.	8a	.
.	.	8g	.
2r	2.d	2b-	.
2d	.	[2a	.
.	4c	.	.
=72	=72	=72	=72
1d	1B-	2a]	1dd]
.	.	2g	.
2e	2A	[1a	1r
[2f	2d	.	.
=73	=73	=73	=73
2f]	1d	0a]	1r
4e	.	.	.
4d	.	.	.
2c	2e	.	2r
[2d	[2f	.	2dd
=74	=74	=74	=74
2d]	2f]	1r	1dd
4c	4e	.	.
4B-	4d	.	.
2A	2c	1a	2ee
2D	[2d	.	[2ff
=75	=75	=75	=75
1D	2d]	1.a	2ff]
.	4c	.	4ee
.	4B-	.	4dd
1r	2A	.	2cc
.	[2B-	2f	[2dd
=76	=76	=76	=76
1r	2B-]	1g	2dd]
.	2c	.	4cc
.	.	.	4b-
2r	1d	[1f	2a
2d	.	.	2b-
=77	=77	=77	=77
1d	1r	2f]	0a
.	.	4e	.
.	.	4d	.
2e	2r	2c	.
[2f	2d	2d	.
=78	=78	=78	=78
2f]	1d	0a	1r
4e	.	.	.
4d	.	.	.
2c	2e	.	2r
[2d	[2f	.	2dd
=79	=79	=79	=79
2d]	2f]	1r	1dd
4c	4e	.	.
4B-	4d	.	.
2A	2c	2r	2ee
2D	[2d	2d	[2ff
=80	=80	=80	=80
1D	2d]	1d	2ff]
.	4c	.	4ee
.	4B-	.	4dd
2r	1A	2e	2cc
2D	.	[2f	[2dd
=81	=81	=81	=81
2D	2B-	2f]	2dd]
2E	2.c	4e	4cc
.	.	4d	4b-
1F	.	2c	1a
.	4F	.	.
.	[2f	[2d	.
=82	=82	=82	=82
1G	2f]	2d]	1.b-
.	2e	4c	.
.	.	4B-	.
1F	2.f	2d	.
.	.	2c	2a
.	4e	.	.
=83	=83	=83	=83
[0F	2d	[0f	[0a
.	4c	.	.
.	4B-	.	.
.	2c	.	.
.	2d	.	.
=84	=84	=84	=84
0F]	0c	0f]	0a]
=85	=85	=85	=85
0F	0f	0a	0cc
=86	=86	=86	=86
1c	1e	1g	1cc
1A	2e	1a	1cc
.	[2f	.	.
=87	=87	=87	=87
1B-	2f]	1f	1dd
.	1d	.	.
1G	.	1b-	1dd
.	[2g	.	.
=88	=88	=88	=88
0d	2g]	0a	1dd
.	4f	.	.
.	4e	.	.
.	1f	.	2r
.	.	.	2a
=89	=89	=89	=89
1A	1e	1a	1.cc
[1c	[1e	[1g	.
.	.	.	2cc
=90	=90	=90	=90
2c]	2e]	2g]	1cc
2c	2e	2a	.
1B-	2f	1b-	1dd
.	[2g	.	.
=91	=91	=91	=91
0c	2g]	1a	[0cc
.	1f	.	.
.	.	1g	.
.	2e	.	.
=92	=92	=92	=92
[0F	2f	0a	1cc]
.	1c	.	.
.	.	.	2r
.	2c	.	[2cc
=93	=93	=93	=93
1F]	2.f	2r	2cc]
.	.	1f	2cc
.	4e	.	.
1r	2d	.	1ff
.	2d	2f	.
=94	=94	=94	=94
0r	1c	2g	1ee
.	.	2a	.
.	1B-	2b-	2dd
.	.	2b-	2dd
=95	=95	=95	=95
0F	1f	0a	2cc
.	.	.	1cc
.	1r	.	.
.	.	.	[2ff
=96	=96	=96	=96
1B-	1d	1f	2ff]
.	.	.	1dd
1G	2g	2b-	.
.	2g	2b-	[2ee
=97	=97	=97	=97
1A	1f	1a	2ee]
.	.	.	2.dd
1A	1e	1a	.
.	.	.	8cc
.	.	.	8b
.	.	.	2cc#
=98	=98	=98	=98
1D	1d	1f	0dd
1d	2r	1r	.
.	2d	.	.
=99	=99	=99	=99
2.c	2e	1g	0r
.	1g	.	.
4B-	.	.	.
2A	.	2a	.
2A	2f#	[2cc	.
=100	=100	=100	=100
1G	2g	2cc]	1dd
.	2g	2b-	.
1r	2c	2a	2ee
.	2e-	2g	[2gg
=101	=101	=101	=101
1r	1d	2.a	2gg]
.	.	.	2ff
.	.	4f	.
2r	1G	4g	2ee
.	.	4a	.
2G	.	2b-	2dd
=102	=102	=102	=102
2A	0r	2a	2ff
1c	.	2.g	1ee
.	.	4f	.
2B-	.	2d	[2dd
=103	=103	=103	=103
2.A	1r	2f	4dd]
.	.	.	8cc
.	.	.	8b
.	.	2.e	2cc#
4G	.	.	.
2F	2r	.	1dd
.	.	4d	.
2G	2d	[2d	.
=104	=104	=104	=104
1E	2e	2d]	1g
.	2g	2c#	.
2D	1f	2d	1r
2d	.	2d	.
=105	=105	=105	=105
2c	2e	2e	0r
2B-	2.d	2g	.
2.A	.	2f	.
.	8c	.	.
.	8B	.	.
.	2c#	[2e	.
4G	.	.	.
=106	=106	=106	=106
2F	1d	2e]	2r
2G	.	1d	2dd
1E	1G	.	2ee
.	.	2c#	[2gg
=107	=107	=107	=107
0D	1A	1d	2gg]
.	.	.	4ff
.	.	.	4ee
.	2r	2r	1ff
.	2d	2f	.
=108	=108	=108	=108
0r	2c	2g	2ee
.	1B-	1b-	1dd
.	2F	2a	2cc
=109	=109	=109	=109
2r	2G	2.g	2b-
2d	2G	.	2b-
.	.	4f	.
2d	1A	2e	[1a
2c#	.	2e	.
=110	=110	=110	=110
1d	2r	2.f	1a]
.	2a	.	.
.	.	8e	.
.	.	8d	.
2A	2a	1e	1r
[2c	2g	.	.
=111	=111	=111	=111
2c]	2a	1d	0r
2B-	2d	.	.
1A	2f	2r	.
.	2e	2a	.
=112	=112	=112	=112
1B-	1d	2a	2r
.	.	2g	2dd
1A	2e	1a	2dd
.	[2f	.	2cc
=113	=113	=113	=113
0r	4f]	2d	1dd
.	4e	.	.
.	1d	1f	.
.	.	.	2a
.	4c	2e	[2cc
.	4B-	.	.
=114	=114	=114	=114
0r	2A	2f	2cc]
.	2G	2.g	2b-
.	1d	.	1a
.	.	8f	.
.	.	8e	.
.	.	2f#	.
=115	=115	=115	=115
1G	1r	1g	1b-
2F	1d	1r	[1a
2D	.	.	.
=116	=116	=116	=116
2.F	2c	0r	0a]
.	2A	.	.
4G	.	.	.
4A	2.c	.	.
4G	.	.	.
4A	.	.	.
4B-	4d	.	.
=117	=117	=117	=117
1c	1e	2r	0r
.	.	2g	.
2.d	2.f	2f	.
.	.	2d	.
4c	4e	.	.
=118	=118	=118	=118
1B-	2d	2f	1r
.	1g	2g	.
1A	.	1a	1cc
.	2f#	.	.
=119	=119	=119	=119
1G	1g	2.b-	2b-
.	.	.	2g
.	.	4a	.
1r	1r	2g	2b-
.	.	[2f	2cc
=120	=120	=120	=120
1r	0r	2f]	1dd
.	.	4e-	.
.	.	4d	.
2r	.	1c	1ee-
2c	.	.	.
=121	=121	=121	=121
2B-	2r	4G	0dd
.	.	4A	.
2G	2g	4B-	.
.	.	4c	.
2.B-	2f	1d	.
.	2d	.	.
4c	.	.	.
=122	=122	=122	=122
1d	2.f	0r	2r
.	.	.	2dd
.	4f	.	.
[1e-	[1g	.	2b-
.	.	.	2g
=123	=123	=123	=123
1e-]	1g]	2r	2.b-
.	.	2g	.
.	.	.	4cc
[1d	1a	2f	2dd
.	.	2d	[2ff
=124	=124	=124	=124
1d]	2d	2.f	4ff]
.	.	.	4ee
.	2.f	.	2dd
.	.	4g	.
1r	.	2a	2cc
.	4e	.	.
.	[2d	[2f	[2b-
=125	=125	=125	=125
1r	4d]	4f]	4b-]
.	4c	4e	4a
.	2A	2c	1a
2r	1B-	2d	.
2G	.	2d	2g
=126	=126	=126	=126
2.c	1A	2.e	1a
4c	.	4e	.
2c	1r	2e	1r
2A	.	2c	.
=127	=127	=127	=127
2B-	2r	2d	2r
2c	2c	2e	2g
[1F	2.c	[1f	2.a
.	4c	.	4a
=128	=128	=128	=128
1F]	2c	1f]	2a
.	2d	.	2f
1r	2e	1r	2g
.	[2f	.	[2a
=129	=129	=129	=129
1F	4f]	2r	4a]
.	4e	.	4b-
.	2c	2a	1cc
2F	1d	2a	.
2G	.	2g	2b
=130	=130	=130	=130
4A	1c	2.e	1cc
4B-	.	.	.
4c	.	.	.
4A	.	4f	.
4B-	1r	2g	1r
4c	.	.	.
[2d	.	[2f	.
=131	=131	=131	=131
4d]	1f	4f]	1r
4c	.	4e	.
4B-	.	4d	.
4A	.	4c	.
2B-	2f	2d	2r
2B-	2g	2d	2dd
=132	=132	=132	=132
1A	2.a	1e	2dd
.	.	.	2cc
.	4g	.	.
2r	4f	1r	1a
.	4e	.	.
[2d	[2f	.	.
=133	=133	=133	=133
2d]	2f]	0r	2b-
2c	4e	.	2.cc
.	4d	.	.
2A	4e	.	.
.	4f	.	4b-
2B-	[2g	.	2g
=134	=134	=134	=134
2c	2g]	1r	0a
1d	4f	.	.
.	4e	.	.
.	2f	2r	.
2c	2e	[2a	.
=135	=135	=135	=135
1B-	1d	2a]	2r
.	.	2g	1dd
1A	1r	2f	.
.	.	2e	2cc
=136	=136	=136	=136
1d	0r	1f	2a
.	.	.	2b-
2c	.	2e	2cc
2B-	.	2d	[2dd
=137	=137	=137	=137
1A	1r	2.e	2dd]
.	.	.	2cc
.	.	4f#	.
1G	2r	1g	1b-
.	[2g	.	.
=138	=138	=138	=138
2r	2g]	1d	0a
1d	2f	.	.
.	2d	2r	.
2c	2e	[2a	.
=139	=139	=139	=139
2A	2f	2a]	2r
2B-	1g	2g	2dd
2c	.	2e	2cc
[2d	2f	[2f	2a
=140	=140	=140	=140
2d]	2d	4f]	2ff
.	.	4g	.
2c	2e	1a	2.ee
1B-	2f	.	.
.	.	.	4dd
.	4e	2g	[2dd
.	4d	.	.
=141	=141	=141	=141
0A	0e	0a	2dd]
.	.	.	4cc
.	.	.	4b
.	.	.	1cc#
=142	=142	=142	=142
0D	0d	0a	0dd
=143	=143	=143	=143
1.d	1r	0r	0r
.	[1a	.	.
2c#	.	.	.
=144	=144	=144	=144
2d	2a]	0r	0r
2B-	2g	.	.
1A	2a	.	.
.	2f	.	.
=145	=145	=145	=145
1.c	1e	0r	0r
.	[1g	.	.
2B	.	.	.
=146	=146	=146	=146
2c	2g]	1r	0r
2A	2f#	.	.
1G	2g	2r	.
.	2e-	[2g	.
=147	=147	=147	=147
1.B-	1d	2g]	1.dd
.	.	2f	.
.	2r	2g	.
2A	[2f	2a	2cc
=148	=148	=148	=148
2B-	2f]	2f	2dd
2G	2e	2g	2b-
2F	2f	1c	4a
.	.	.	4b-
2A	[2e	.	4cc
.	.	.	4a
=149	=149	=149	=149
2.G	4e]	1d	1b-
.	4d	.	.
.	1d	.	.
4F	.	.	.
1E	.	2r	1g
.	2c#	[2g	.
=150	=150	=150	=150
1D	2.d	2g]	2r
.	.	2f	1dd
.	4c	.	.
1r	2B-	2g	.
.	2A	2a	2cc
=151	=151	=151	=151
0r	1G	2.b-	2dd
.	.	.	2ee
.	.	4b-	.
.	1r	2a	2.ff
.	.	2f	.
.	.	.	4ff
=152	=152	=152	=152
0r	2r	2g	2ee
.	2d	2.b-	1dd
.	1f	.	.
.	.	4a	.
.	.	[2a	2cc
=153	=153	=153	=153
0r	1g	2a]	1b-
.	.	2g	.
.	2d	[1a	1a
.	[2f	.	.
=154	=154	=154	=154
1A	2f]	1a]	0r
.	4e	.	.
.	4d	.	.
1c	1e	1r	.
=155	=155	=155	=155
1d	1.f	0r	1a
2A	.	.	1cc
2c	2e	.	.
=156	=156	=156	=156
2.B-	2d	1d	1dd
.	2.f	.	.
4A	.	.	.
2F	.	1f	2a
.	4e	.	.
2A	2c	.	[2cc
=157	=157	=157	=157
0G	0d	1g	2cc]
.	.	.	4b-
.	.	.	4a
.	.	2d	1b-
.	.	[2g	.
=158	=158	=158	=158
0r	1d	2g]	2.a
.	.	1f	.
.	.	.	4b-
.	[1A	.	2cc
.	.	4e	[2dd
.	.	4d	.
=159	=159	=159	=159
1A	1A]	2e	2dd]
.	.	2e	2cc#
2B-	2r	1d	1dd
[2G	2d	.	.
=160	=160	=160	=160
2G]	2e-	2r	0r
2F#	1d	2a	.
2G	.	2b-	.
2E-	2c	[2g	.
=161	=161	=161	=161
1D	1d	2g]	1a
.	.	2f#	.
1r	1G	2.g	2b-
.	.	.	[2dd
.	.	4f	.
=162	=162	=162	=162
1A	0r	1e	2dd]
.	.	.	2cc#
2B-	.	[1d	2.dd
2G	.	.	.
.	.	.	4cc
=163	=163	=163	=163
2G	2r	0d]	2b-
2F#	2A	.	2a
2.G	2B-	.	[1g
.	2d	.	.
4F	.	.	.
=164	=164	=164	=164
1E	2d	2r	1g]
.	2c#	2e	.
1D	1d	2f	1r
.	.	2d	.
=165	=165	=165	=165
0r	1A	2d	1ee
.	.	2c#	.
.	1r	4d	2ff
.	.	4e	.
.	.	4f	2dd
.	.	4d	.
=166	=166	=166	=166
1r	1r	1e	2dd
.	.	.	2cc#
2r	2r	1d	1dd
[2d	[2f	.	.
=167	=167	=167	=167
2d]	2f]	0r	0a
2d	2f	.	.
2c	2e	.	.
2A	2f	.	.
=168	=168	=168	=168
2B-	2g	0r	0r
2c	2a	.	.
2d	2f	.	.
[2B-	[2g	.	.
=169	=169	=169	=169
4B-]	4g]	0r	1b-
4A	4f	.	.
4G	1f	.	.
4F	.	.	.
1G	.	.	2b-
.	2e	.	2b-
=170	=170	=170	=170
1F	2f	2r	2.a
.	2F	2f	.
.	.	.	4b-
1r	2A	2f	2cc
.	2B-	2f	2dd
=171	=171	=171	=171
0r	2.c	2.e	2g
.	.	.	4cc
.	8B-	4f	4dd
.	8A	.	.
.	2G	2g	4ee
.	.	.	4dd
.	2F	[2a	[2ff
=172	=172	=172	=172
0r	2A	4a]	4ff]
.	.	4g	4ee
.	1B-	4f	4dd
.	.	4e	4cc
.	.	2f	2dd
.	2c	2e	[2cc
=173	=173	=173	=173
1r	1G	2d	2cc]
.	.	2d	2b
2r	2r	1c	1cc
2A	2c	.	.
=174	=174	=174	=174
2F	2d	0r	0r
2G	2e	.	.
2.A	2.f	.	.
4B-	4f	.	.
=175	=175	=175	=175
2c	1e	2r	2r
2A	.	2c	2a
2B-	2r	2d	2f
2B-	2d	2d	2g
=176	=176	=176	=176
1A	2.c	2.e	2.a
.	4B-	4d	4b-
1r	2A	2e	2cc
.	2A	2f	2a
=177	=177	=177	=177
0r	4G	2g	2b-
.	4A	.	.
.	4B-	2g	2b-
.	4c	.	.
.	1d	2.f	[1a
.	.	8e	.
.	.	8d	.
=178	=178	=178	=178
1A	2r	1e	1a]
.	2c	.	.
2F	2d	1r	1r
2G	2d	.	.
=179	=179	=179	=179
2.A	2.c	1r	1r
4B-	4d	.	.
2c	2e	2r	2r
2A	2f	2a	2cc
=180	=180	=180	=180
1B-	1d	2f	2dd
.	.	2g	2dd
1A	1e	2.a	2.cc
.	.	4b-	4dd
=181	=181	=181	=181
0r	1r	2cc	2ee
.	.	2a	2ff
.	2r	1b-	1dd
.	[2g	.	.
=182	=182	=182	=182
1.d	2g]	1a	0dd
.	2f	.	.
.	2f	2r	.
2d	2f	[2a	.
=183	=183	=183	=183
2d	1f	2a]	0r
2d	.	2a	.
1c	1e	2a	.
.	.	2a	.
=184	=184	=184	=184
2.B-	2.d	2g	1r
.	.	2f	.
4A	4c	.	.
2G	2B-	2g	[1dd
2F	2A	2a	.
=185	=185	=185	=185
2G	1G	2.b-	2dd]
1B-	.	.	2dd
.	.	4a	.
.	1r	2f	2dd
4A	.	[2g	2dd
4G	.	.	.
=186	=186	=186	=186
1A	1c	2g]	1cc
.	.	2f#	.
1G	2d	1g	2.b-
.	[2e-	.	.
.	.	.	4a
=187	=187	=187	=187
0r	2e-]	2r	2g
.	2d	2.b-	2f
.	1e-	.	2g
.	.	4a	.
.	.	2g	[2b-
=188	=188	=188	=188
0r	0d	2f	2b-]
.	.	1g	4a
.	.	.	4g
.	.	.	1a
.	.	2f#	.
=189	=189	=189	=189
1.G	2r	1g	1g
.	1B-	.	.
.	.	1r	1dd
2F	2A	.	.
=190	=190	=190	=190
1E	1G	1g	1ee
1D	1d	1a	1ff
=191	=191	=191	=191
1.G	2r	1b-	1dd
.	1d	.	.
.	.	2g	2r
2G	2d	[2b-	[2dd
=192	=192	=192	=192
2G	2g	2b-]	2dd]
2G	2g	2b-	2dd
1B-	1f	2b-	2dd
.	.	2b-	2dd
=193	=193	=193	=193
2.F	2f	1a	1cc
.	2f	.	.
4G	.	.	.
1A	2e	[1a	1cc
.	[2f	.	.
=194	=194	=194	=194
1D	4f]	1a]	1ff
.	4e	.	.
.	2d	.	.
1r	2c#	2.a	2ee
.	[2d	.	[2ff
.	.	4g	.
=195	=195	=195	=195
0r	2d]	2f	4ff]
.	.	.	4ee
.	2G	2g	1dd
.	1A	1e	.
.	.	.	2cc
=196	=196	=196	=196
1G	1r	1d	1b-
2F	1d	1r	[1a
2D	.	.	.
=197	=197	=197	=197
2.F	2c	0r	1a]
.	2A	.	.
4G	.	.	.
4A	2.c	.	1r
4B-	.	.	.
[2c	.	.	.
.	4d	.	.
=198	=198	=198	=198
4c]	4e	0r	0r
4B-	4f	.	.
2G	2.g	.	.
1B-	.	.	.
.	4f	.	.
.	2d	.	.
=199	=199	=199	=199
2.A	2f	0r	0r
.	1e	.	.
4G	.	.	.
2F	.	.	.
2G	[2d	.	.
=200	=200	=200	=200
2E	2d]	1g	1r
2E	2c#	.	.
1D	1d	2f	2r
.	.	2d	2dd
=201	=201	=201	=201
2r	0r	2.f	2cc
2d	.	.	2a
.	.	4g	.
2c	.	4a	2.cc
.	.	4b-	.
2A	.	[2cc	.
.	.	.	4dd
=202	=202	=202	=202
1c	0r	4cc]	4ee
.	.	4b-	4ff
.	.	2g	2.gg
4G	.	1b-	.
4A	.	.	4ff
4B-	.	.	2dd
4c	.	.	.
=203	=203	=203	=203
2d	0r	2.a	2ff
2c#	.	.	1ee
.	.	4g	.
2d	.	2f	.
2G	.	2g	[2dd
=204	=204	=204	=204
1A	1r	2e	2dd]
.	.	2e	2cc#
2r	2r	1d	1dd
2G	2g	.	.
=205	=205	=205	=205
2A	2f	0r	0r
1c	1e	.	.
4B-	4d	.	.
4A	4c	.	.
=206	=206	=206	=206
1B-	1d	2r	2r
.	.	2d	2dd
2A	1r	2e	2cc
2G	.	[2g	[2b-
=207	=207	=207	=207
1d	1r	2g]	2b-]
.	.	4f	4a
.	.	4e	4g
2r	2r	2f	2a
2G	2g	2d	2b-
=208	=208	=208	=208
2A	2f	1c	1a
1c	1e	.	.
.	.	1r	1g
4B-	4d	.	.
4A	4c	.	.
=209	=209	=209	=209
2.B-	2d	1r	0r
.	2f	.	.
4A	.	.	.
2G	2e	2r	.
2F	[2d	2d	.
=210	=210	=210	=210
1E	2d]	2e	0r
.	2c#	1g	.
[1D	1d	.	.
.	.	4f	.
.	.	4e	.
=211	=211	=211	=211
1D]	2r	2f	1dd
.	2d	2B-	.
1r	2e	2A	2cc
.	[2g	2G	[2b-
=212	=212	=212	=212
0r	2g]	1.d	2b-]
.	4f	.	4a
.	4e	.	4g
.	2.f	.	2a
.	.	2A	2cc
.	4e	.	.
=213	=213	=213	=213
1r	2d	2f	2b-
.	2c	2e	2.a
2r	1B-	1d	.
.	.	.	4g
2G	.	.	[2g
=214	=214	=214	=214
2A	1A	1c	2g]
1c	.	.	2f#
.	1G	1d	1g
4B-	.	.	.
4A	.	.	.
=215	=215	=215	=215
2.B-	1r	2.G	2r
.	.	.	1b-
4A	.	4A	.
2G	1d	4B-	.
.	.	4c	.
2F	.	[2d	2a
=216	=216	=216	=216
1E	2e	2d]	2.g
.	1g	2c#	.
.	.	.	4a
1D	.	[1d	2b-
.	4f	.	2a
.	4e	.	.
=217	=217	=217	=217
2r	2.f	1d]	1dd
1B-	.	.	.
.	4e	.	.
.	2d	2r	1r
2A	2c	2f	.
=218	=218	=218	=218
2.G	2B-	2g	2r
.	1d	1b-	2dd
4F	.	.	.
1E	.	.	2ee
.	2c#	4a	[2gg
.	.	4g	.
=219	=219	=219	=219
1D	[0d	2b-	2gg]
.	.	1a	4ff
.	.	.	4ee
2.d	.	.	2.ff
.	.	2d	.
4c	.	.	4ee
=220	=220	=220	=220
2B-	1d_	1f	2dd
2A	.	.	2cc
1G	1d_	1g	1b-
=221	=221	=221	=221
[0D	0d]	[0f#	[0a
=222	=222	=222	=222
0D]	0d	0f#]	0a]
==	==	==	==
*-	*-	*-	*-
!!!CDT: 1525/^1526/-1594/2/2
!!!OCY: Italia
!!!AGN: Mass (Parody)
!!!AST: renaissance, vocal
!!!ASW: Motet 1532 (Verdelot)
!!!PWK: Masses, Book I
!!!RNB: Cadence finals: A,F
!!!YOR: Le Opere Complete, v. 1, p. 93
!!!YOO: Rome, Italy: Fratelli Scalera
!!!END: 1992//
!!!EED: John Miller
!!!YEC: Copyright 2000, John Miller
!!!YEN: United States of America
!!!YEM: Rights to all derivative electronic formats reserved.
!!!YEM: Refer to licensing agreement for further details.
!!!YEM: This file must be accompanied by the licensing agreement.
!!!YEM: A copy of the licensing agreement may be found at http://www.music-cog.ohio-state.edu/HumdrumDatabases/Palestrina/license.txt
!!!EMD: converted to Humdrum by Bret Aarden
